img/icons/cow-icon.svg

<svg width="48" height="48" viewBox="0 0 48 48" fill="none" xmlns="http://www.w3.org/2000/svg">
<circle cx="24" cy="24" r="23" stroke="#2D3440" stroke-width="2"/>
<path d="M34.749 18.2868C35.474 16.8027 35.8877 15.1943 35.9663 13.5546C36.0449 11.9149 35.7868 10.2764 35.2069 8.73373C35.1454 8.54577 35.0283 8.3794 34.8701 8.25524C34.7118 8.13109 34.5193 8.05462 34.3165 8.03532C34.1138 8.01603 33.9096 8.05475 33.7293 8.1467C33.5491 8.23864 33.4007 8.37976 33.3026 8.55253C31.9811 10.8376 29.1404 14.5219 27.0593 14.693H26.9656C26.0088 14.511 25.0374 14.41 24.0624 14.3911C23.084 14.4098 22.1092 14.5108 21.1489 14.693H21.076C18.9949 14.532 16.1125 10.8477 14.7806 8.5626C14.6877 8.37976 14.5397 8.2285 14.356 8.12879C14.1724 8.02909 13.9618 7.98564 13.7521 8.00418C13.5423 8.02272 13.3434 8.10239 13.1814 8.23265C13.0195 8.36291 12.9023 8.53763 12.8452 8.73373C12.2552 10.2709 11.9872 11.9063 12.0569 13.5447C12.1266 15.183 12.5325 16.7916 13.251 18.2767C11.4404 18.4981 9.14077 19.0619 8.30832 20.4812C8.10637 20.8176 8 21.1996 8 21.5885C8 21.9775 8.10637 22.3595 8.30832 22.6958C8.54668 23.1071 8.90147 23.444 9.33096 23.6669C9.76045 23.8898 10.2468 23.9895 10.7328 23.9541C11.595 23.9371 12.4474 23.7735 13.251 23.471C13.2439 24.0141 13.2891 24.5567 13.3863 25.0916C13.8507 26.8799 14.4596 28.6301 15.2072 30.3262C15.405 30.7993 15.6235 31.3328 15.7379 31.6549C15.3961 32.4629 15.128 33.2982 14.9367 34.1514C14.8873 34.7542 14.9651 35.3605 15.1655 35.9333C15.3658 36.5061 15.6845 37.0335 16.1021 37.4834C17.6109 39.1544 20.2644 40 24.0312 40C27.7981 40 30.4619 39.1544 31.9603 37.4834C32.38 37.0348 32.7 36.5076 32.9005 35.9344C33.1009 35.3613 33.1776 34.7544 33.1257 34.1514C32.9379 33.2985 32.6733 32.4632 32.3349 31.6549C32.4494 31.3328 32.6679 30.8094 32.8552 30.3262C33.6107 28.633 34.2198 26.8822 34.6762 25.0916C34.7812 24.5576 34.83 24.0146 34.8218 23.471C35.5992 23.7646 36.4226 23.928 37.2568 23.9541C37.7441 23.989 38.2317 23.8892 38.6628 23.6664C39.0938 23.4437 39.4506 23.1071 39.6917 22.6958C39.8936 22.3595 40 21.9775 40 21.5885C40 21.1996 39.8936 20.8176 39.6917 20.4812C38.8696 19.1122 36.57 18.5082 34.749 18.2868ZM33.7605 11.6027C34.1358 13.7077 33.7693 15.8737 32.7199 17.7532C32.4591 17.4469 32.1812 17.1545 31.8875 16.8775C31.2994 16.3545 30.6284 15.9262 29.9 15.6091C31.4008 14.4828 32.7043 13.13 33.7605 11.6027ZM14.2916 11.6027C15.3372 13.1406 16.638 14.5011 18.1416 15.6292C17.4145 15.9376 16.7489 16.3669 16.175 16.8976C15.877 17.1738 15.5956 17.4662 15.3321 17.7734C14.2796 15.8876 13.9131 13.7142 14.2916 11.6027ZM10.1917 21.7295C10.0981 21.5684 10.1293 21.5181 10.1917 21.4778C10.4311 21.0852 11.6381 20.4712 13.9482 20.2396C13.8337 20.5316 13.7296 20.8235 13.636 21.1255C12.2833 21.7999 10.4727 22.2227 10.1917 21.7295ZM32.6263 24.7494C32.1904 26.4019 31.627 28.0204 30.9405 29.5913C30.6688 30.2068 30.4291 30.835 30.2226 31.4738L30.1601 31.7858L30.2746 32.0677C30.6037 32.8353 30.8716 33.6261 31.0758 34.4333C31.0868 34.7508 31.0327 35.0673 30.9166 35.3644C30.8006 35.6616 30.6248 35.9336 30.3995 36.1647C29.6503 37.0002 27.9437 37.9867 24.0416 37.9867C20.1395 37.9867 18.433 36.9801 17.6838 36.1647C17.2345 35.6944 16.992 35.0735 17.0074 34.4333C17.2159 33.6261 17.4872 32.8353 17.8191 32.0677L17.9335 31.7858L17.8607 31.4738C17.6653 30.8294 17.429 30.1974 17.1531 29.5813C16.4547 28.0024 15.8841 26.3735 15.4466 24.7091C15.2481 23.5489 15.3453 22.3593 15.7298 21.2436C16.1142 20.128 16.7742 19.1199 17.6526 18.3069C19.2238 16.7768 22.7825 16.4345 24.0208 16.4245C25.2591 16.4144 28.745 16.7667 30.4099 18.327C31.2936 19.1323 31.9582 20.1361 32.3449 21.2494C32.7315 22.3626 32.8281 23.551 32.6263 24.7091V24.7494ZM37.8291 21.7295C37.5585 22.2127 35.7479 21.7999 34.4576 21.1355C34.3744 20.8336 34.2703 20.5416 34.1559 20.2396C36.4451 20.4712 37.6418 21.0852 37.8707 21.4778C37.9227 21.5181 37.9435 21.5684 37.8499 21.7295H37.8291Z" fill="#2D3440"/>
</svg>

<svg width="48" height="48" fill="none" xmlns="http://www.w3.org/2000/svg"><circle cx="24" cy="24" r="23" stroke="#2D3440" stroke-width="2"/><path d="M34.75 18.29a12.1 12.1 0 0 0 .46-9.56 1 1 0 0 0-.34-.47 1.06 1.06 0 0 0-1.57.3c-1.32 2.28-4.16 5.96-6.24 6.13h-.1c-.95-.18-1.92-.28-2.9-.3-.98.02-1.95.12-2.91.3h-.07c-2.09-.16-4.97-3.84-6.3-6.13-.1-.18-.24-.33-.42-.43a1.07 1.07 0 0 0-1.18.1 1 1 0 0 0-.33.5 12 12 0 0 0 .4 9.55c-1.81.22-4.1.78-4.94 2.2a2.15 2.15 0 0 0 0 2.22c.24.4.6.74 1.02.97.43.22.92.32 1.4.28a7.57 7.57 0 0 0 2.52-.48c0 .54.04 1.09.14 1.62a34.44 34.44 0 0 0 1.82 5.24c.2.47.41 1 .53 1.32-.34.81-.61 1.65-.8 2.5a4.32 4.32 0 0 0 1.16 3.33c1.51 1.67 4.16 2.52 7.93 2.52 3.77 0 6.43-.85 7.93-2.52a4.39 4.39 0 0 0 1.17-3.33c-.2-.85-.46-1.69-.8-2.5l.53-1.32c.75-1.7 1.36-3.45 1.82-5.24.1-.53.15-1.08.14-1.62.78.3 1.6.46 2.44.48a2.54 2.54 0 0 0 2.43-1.26 2.15 2.15 0 0 0 0-2.2c-.82-1.38-3.12-1.98-4.94-2.2Zm-.99-6.69c.38 2.1 0 4.27-1.04 6.15a7.49 7.49 0 0 0-2.82-2.14c1.5-1.13 2.8-2.48 3.86-4Zm-19.47 0a16.96 16.96 0 0 0 3.85 4.03c-.73.3-1.4.74-1.96 1.27-.3.27-.58.57-.85.87a9.28 9.28 0 0 1-1.04-6.17Zm-4.1 10.13c-.1-.16-.06-.21 0-.25.24-.4 1.45-1 3.76-1.24-.12.3-.22.58-.31.89-1.36.67-3.17 1.1-3.45.6Zm22.44 3.02a33.3 33.3 0 0 1-1.69 4.84c-.27.62-.51 1.25-.72 1.88l-.06.32.11.28c.33.77.6 1.56.8 2.36a2.33 2.33 0 0 1-.67 1.73C29.65 37 27.94 38 24.04 38c-3.9 0-5.6-1.01-6.36-1.83-.45-.47-.69-1.09-.67-1.73.2-.8.48-1.6.8-2.36l.12-.28-.07-.32c-.2-.64-.43-1.27-.7-1.89-.7-1.58-1.28-3.2-1.71-4.87a7 7 0 0 1 2.2-6.4c1.57-1.53 5.13-1.88 6.37-1.89 1.24 0 4.73.35 6.39 1.9.88.81 1.55 1.82 1.93 2.93.4 1.11.49 2.3.29 3.46v.04Zm5.2-3.02c-.27.48-2.08.07-3.37-.6-.09-.3-.19-.59-.3-.89 2.29.23 3.48.85 3.71 1.24.05.04.07.09-.02.25h-.02Z" fill="#2D3440"/></svg>
